X:1
T:James Gibb editions
T:Exsurgat Deus - Draconio
%%score [ 1 2 3 4 ]
L:1/8
Q:1/4=100
M:4/4
K:D
V:1 treble-8 nm="Tenor I" snm="T I"
V:2 treble-8 nm="Tenor II" snm="T II"
V:3 bass nm="Bass I" snm="B I"
V:4 bass nm="Bass II" snm="B II"
V:1
"^Giovanni Andrea Draconio\n(1550?-99)""^Exsurgat Deus" e4 e2 e2 | f2 e2 z2 e2 | e3 e e2 e2 | %3
w: Ex\-- sur- gat|De- us et|dis- si- pen- tur|
[M:4/4][K:treble-8] f2 ^g2 a2 a2 | =g4 !fermata!f4 | z2 e2 ee e2 | eeee f2 ee | ^dd e2 c4 | %8
w: i- ni- mi- ci|e- jus|et fu- gi- ant|qui o- de- runt e- um a|fa- ci- e e-|
 !fermata!^d8 |] %9
w: jus.|
V:2
 c4 c2 c2 | d2 c2 z2 c2 | c3 c c2 c2 |[M:4/4][K:treble-8] d2 d2 c4 | B2 e4 !fermata!^d2 | %5
w: Ex- sur- gat|De- us et|dis- si- pen- tur|i- ni- mi-|ci e- jus|
 z2 B2 BB B2 | cccc d2 cc | BB B4 ^A2 | !fermata!B8 |] %9
w: et fu- gi- ant|qui o- de- runt e- um a|fa- ci- e e-|jus.|
V:3
 A,4 A,2 A,2 | A,2 A,2 z2 A,2 | A,3 A, A,2 A,2 |[M:4/4] A,2 B,2 E,2 E,2 | (E,F,G,A,) !fermata!B,4 | %5
w: Ex- sur- gat|De- us et|dis- si- pen- tur|i- ni- mi- ci|e\- * * * jus|
 z2 ^G,2 G,G, G,2 | A,A,A,A, A,2 A,A, | F,F, G,2 F,4 | !fermata!F,8 |] %9
w: et fu- gi- ant|qui o- de- runt e- um a|fa- ci- e e-|jus.|
V:4
 A,,4 A,,2 A,,2 | D,2 A,,2 z2 A,,2 | A,,3 A,, A,,2 A,,2 |[M:4/4] D,2 B,,2 A,,2 A,,2 | %4
w: Ex- sur- gat|De- us et|dis- si- pen- tur|i- ni- mi- ci|
 E,4 !fermata!B,,4 | z2 [E,,E,]2 [E,,E,][E,,E,] [E,,E,]2 | A,,A,,A,,A,, D,2 A,,A,, | %7
w: e- jus|et fu- gi- ant|qui o- de- runt e- um a|
 B,,B,, [E,,E,]2 [F,,F,]4 | !fermata!B,,8 |] %9
w: fa- ci- e e-|jus.|

